X: 3836
T: Black Isle, The
R: slip jig
M: 9/8
K: Amixolydian
|:e|A>Bd B3 G2B|A>Bd e3 e2f|g>ed e3 d2B|A>BA G3G2e|
A>Bd B3 G2B|A>Bd e3 e2f|g>ag e3 d2B|A2A<A A3A2:|
|:f|g>fg a3 e2a|g>ed e3 A/A/A2|f>ed e3 d2B|A>BA G3G>gf|
e>dB A3 G2B|A>Bd e3 e2f|g>ag e3 d2B|A2A<A A3A2:|

